static/images/uploads/wine.svg

<?xml version="1.0" encoding="UTF-8"?>
<svg width="31px" height="30px" viewBox="0 0 31 30" version="1.1" xmlns="http://www.w3.org/2000/svg" xmlns:xlink="http://www.w3.org/1999/xlink">
    <!-- Generator: Sketch 50.2 (55047) - http://www.bohemiancoding.com/sketch -->
    <title>party</title>
    <desc>Created with Sketch.</desc>
    <defs></defs>
    <g id="-" stroke="none" stroke-width="1" fill="none" fill-rule="evenodd">
        <g id="Parent-Private-Charters" transform="translate(-705.000000, -1148.000000)" fill="#413F47">
            <g id="Group-22" transform="translate(0.000000, 840.000000)">
                <g id="Group-17" transform="translate(595.000000, 308.000000)">
                    <g id="party" transform="translate(110.000000, 0.000000)">
                        <path d="M15.3944218,-3.24314762e-05 C14.940223,-3.24314762e-05 14.5509096,0.356713807 14.5509096,0.84318595 L14.5509096,3.3728411 C14.5509096,3.82688176 14.9077802,4.21605948 15.3944218,4.21605948 C15.8486207,4.21605948 16.237934,3.85931324 16.237934,3.3728411 L16.237934,0.84318595 C16.2054912,0.389145283 15.8486207,-3.24314762e-05 15.3944218,-3.24314762e-05" id="Fill-1"></path>
                        <path d="M10.9822042,5.57818148 C11.1444181,5.74033886 11.3715176,5.83763329 11.5661742,5.83763329 C11.7608309,5.83763329 11.9879303,5.74033886 12.1501442,5.57818148 C12.474572,5.25386672 12.474572,4.7349631 12.1501442,4.41064834 L10.3657915,2.59448567 C10.0413637,2.2701709 9.5222793,2.2701709 9.19785153,2.59448567 C8.87342377,2.91880043 8.87342377,3.43770405 9.19785153,3.76201881 L10.9822042,5.57818148 Z" id="Fill-3"></path>
                        <path d="M19.2226694,5.77277034 C19.4497689,5.77277034 19.6444255,5.67547591 19.8066394,5.51331853 L21.5909921,3.72958733 C21.9154199,3.40527257 21.9154199,2.88636895 21.5909921,2.56205419 C21.2665644,2.23773943 20.7474799,2.23773943 20.4230522,2.56205419 L18.6386995,4.34578538 C18.3142717,4.67010015 18.3142717,5.18900376 18.6386995,5.51331853 C18.7684706,5.70790738 18.99557,5.77277034 19.2226694,5.77277034" id="Fill-5"></path>
                        <path d="M12.474572,14.5617004 C11.9879303,13.9779338 11.306632,13.3941672 10.2684632,12.9725581 C7.70548382,11.9671823 6.37532999,13.783345 3.84479343,12.0969082 L5.85624557,8.04297367 L12.9936564,10.1510196 L12.474572,14.5617004 Z M13.7073975,8.98348648 L5.85624557,6.64842019 C5.43448947,6.51869429 4.9802906,6.71328315 4.78563395,7.10246086 L2.31998294,12.1617712 C1.60624186,13.5887561 1.47647075,15.1778984 1.93066962,16.6373149 C2.44975405,18.3886146 3.7474651,19.7183051 5.36960392,20.3993661 L3.617694,26.2694633 C3.55280844,26.4964836 3.32570901,26.6262096 3.09860957,26.5937781 L0.535630239,26.1721689 C0.308530804,26.1397374 0.0814313692,26.2694633 0.0165458164,26.4964836 C-0.0483397364,26.7559355 0.0814313692,27.0153873 0.34097358,27.0802502 L7.25128495,29.1234332 C7.51082716,29.1882962 7.77036937,29.0585703 7.83525493,28.7991185 C7.90014048,28.5720981 7.80281215,28.3126463 7.57571272,28.2477834 L5.20739004,27.2424076 C4.9802906,27.1451132 4.88296228,26.9180928 4.94784783,26.6910725 L6.66731498,20.8209753 C8.4192249,21.1128586 10.2035776,20.6912494 11.598617,19.5237163 C12.7665569,18.550772 13.5127408,17.123787 13.7073975,15.5346447 L14.356253,9.95643077 C14.4211385,9.53482158 14.1291535,9.11321239 13.7073975,8.98348648 Z" id="Fill-7"></path>
                        <path d="M20.5203805,13.0049895 C19.5146544,13.3941672 18.8009133,14.0103653 18.3142717,14.5941319 L17.7951873,10.1834511 L24.9325981,8.07540515 L26.9440502,12.1293397 C24.4459564,13.8157764 23.1158026,11.9671823 20.5203805,13.0049895 M30.2532134,26.2046004 L27.6902341,26.6262096 C27.4631346,26.658641 27.2360352,26.5289151 27.1711497,26.3018948 L25.4192397,20.4317976 C27.0738213,19.7507366 28.3390896,18.3886146 28.858174,16.6697463 C29.3123729,15.2103299 29.150159,13.6211876 28.4688607,12.1942026 L25.9707669,7.13489234 C25.7761103,6.74571462 25.3219114,6.55112577 24.9001553,6.68085167 L17.0490034,9.01591796 C16.6272473,9.14564386 16.3677051,9.53482158 16.4001479,9.98886225 L17.0490034,15.5670762 C17.2436601,17.1562185 17.9898439,18.550772 19.1577839,19.5561477 C20.5203805,20.7236809 22.337176,21.1452901 24.0890859,20.8534068 L25.808553,26.723504 C25.8734386,26.9505243 25.7761103,27.2099761 25.5490108,27.2748391 L23.1806882,28.3126463 C22.9535887,28.4099407 22.8562604,28.6369611 22.9211459,28.8639814 C22.9860315,29.1234332 23.2455737,29.2531591 23.5051159,29.1882962 L30.4154273,27.1451132 C30.6749695,27.0802502 30.8047406,26.8207984 30.7398551,26.5613466 C30.7074123,26.3018948 30.4803128,26.1397374 30.2532134,26.2046004" id="Fill-9"></path>
                    </g>
                </g>
            </g>
        </g>
    </g>
</svg>

<svg width="31" height="30" xmlns="http://www.w3.org/2000/svg"><g fill="#413F47" fill-rule="evenodd"><path d="M15.394 0a.837.837 0 0 0-.843.843v2.53c0 .454.357.843.843.843a.837.837 0 0 0 .844-.843V.843C16.205.39 15.848 0 15.394 0M10.982 5.578c.162.162.39.26.584.26a.872.872 0 0 0 .584-.26.822.822 0 0 0 0-1.167l-1.784-1.817a.823.823 0 0 0-1.168 0 .822.822 0 0 0 0 1.168l1.784 1.816zM19.223 5.773a.813.813 0 0 0 .584-.26L21.59 3.73a.822.822 0 0 0 0-1.168.823.823 0 0 0-1.168 0L18.64 4.346a.822.822 0 0 0 0 1.167c.13.195.357.26.584.26M12.475 14.562c-.487-.584-1.168-1.168-2.207-1.59-2.563-1.005-3.893.811-6.423-.875l2.011-4.054 7.138 2.108-.52 4.41zm1.232-5.579l-7.85-2.335a.902.902 0 0 0-1.071.454l-2.466 5.06c-.714 1.427-.844 3.016-.39 4.475.52 1.752 1.817 3.081 3.44 3.762l-1.752 5.87a.465.465 0 0 1-.52.325l-2.562-.422a.465.465 0 0 0-.52.324c-.064.26.065.52.325.584l6.91 2.043c.26.065.52-.064.584-.324.065-.227-.032-.486-.26-.551l-2.368-1.006a.447.447 0 0 1-.26-.55l1.72-5.871c1.752.292 3.537-.13 4.932-1.297 1.168-.973 1.914-2.4 2.108-3.99l.65-5.578c.064-.421-.228-.843-.65-.973zM20.52 13.005a5.391 5.391 0 0 0-2.206 1.59l-.519-4.412 7.138-2.108 2.011 4.054c-2.498 1.687-3.828-.162-6.424.876m9.733 13.2l-2.563.421a.465.465 0 0 1-.519-.324l-1.752-5.87a5.918 5.918 0 0 0 3.44-3.762c.453-1.46.291-3.049-.39-4.476l-2.498-5.06a.902.902 0 0 0-1.07-.453l-7.852 2.335c-.422.13-.681.519-.649.973l.649 5.578c.195 1.59.94 2.984 2.109 3.99 1.362 1.167 3.18 1.588 4.931 1.296l1.72 5.87c.064.228-.033.487-.26.552l-2.368 1.038a.447.447 0 0 0-.26.551c.065.26.325.39.584.324l6.91-2.043c.26-.065.39-.324.325-.584-.033-.26-.26-.421-.487-.356"/></g></svg>
